static/site/images/special-projects/autoclave/svg/circle-icon-8.svg

<svg width="109" height="109" viewBox="0 0 109 109" fill="none" xmlns="http://www.w3.org/2000/svg">
<path d="M54.9974 69.0904C70.1541 69.0904 82.441 56.8035 82.441 41.6468C82.441 26.4901 70.1541 14.2031 54.9974 14.2031C39.8407 14.2031 27.5537 26.4901 27.5537 41.6468C27.5537 56.8035 39.8407 69.0904 54.9974 69.0904Z" stroke="#0073FF" stroke-width="2" stroke-miterlimit="10"/>
<path d="M54.9993 61.087C65.7368 61.087 74.4413 52.3826 74.4413 41.6451C74.4413 30.9076 65.7368 22.2031 54.9993 22.2031C44.2618 22.2031 35.5574 30.9076 35.5574 41.6451C35.5574 52.3826 44.2618 61.087 54.9993 61.087Z" stroke="#0073FF" stroke-width="2" stroke-miterlimit="10"/>
<path d="M74.3884 76.7155L62.3794 50.7207C61.7505 49.3651 60.747 48.2176 59.4873 47.4137C58.2275 46.6098 56.7641 46.1829 55.2696 46.1836C53.7972 46.1854 52.3548 46.6007 51.1069 47.3823C49.859 48.1639 48.8558 49.2804 48.2116 50.6044L35.6079 77.6074" fill="white"/>
<path d="M74.3884 76.7155L62.3794 50.7207C61.7505 49.3651 60.747 48.2176 59.4873 47.4137C58.2275 46.6098 56.7641 46.1829 55.2696 46.1836V46.1836C53.7972 46.1854 52.3548 46.6007 51.1069 47.3823C49.859 48.1639 48.8558 49.2804 48.2116 50.6044L35.6079 77.6074" stroke="#0073FF" stroke-width="2" stroke-miterlimit="10"/>
<path d="M54.998 107.107C84.2691 107.107 107.998 83.3785 107.998 54.1074C107.998 24.8363 84.2691 1.10742 54.998 1.10742C25.727 1.10742 1.99805 24.8363 1.99805 54.1074C1.99805 83.3785 25.727 107.107 54.998 107.107Z" stroke="#0073FF" stroke-width="2" stroke-miterlimit="10"/>
<path d="M44.553 76.3164C47.7588 76.3164 47.7588 78.9004 51.0164 78.9004C54.274 78.9004 54.2223 76.3164 57.4798 76.3164C60.7374 76.3164 60.6986 78.9004 63.9432 78.9004" stroke="#0073FF" stroke-width="2" stroke-miterlimit="10"/>
<path d="M63.8271 76.3164C67.0459 76.3164 67.0459 78.9004 70.2906 78.9004C73.5352 78.9004 73.5094 76.3164 76.754 76.3164C79.9986 76.3164 79.9728 78.9004 83.2174 78.9004" stroke="#0073FF" stroke-width="2" stroke-miterlimit="10"/>
<path d="M83.1013 76.3164C86.3201 76.3164 86.3201 78.9004 89.5647 78.9004C92.8094 78.9004 92.7835 76.3164 96.0282 76.3164C99.2728 76.3164 99.234 78.9004 102.492 78.9004" stroke="#0073FF" stroke-width="2" stroke-miterlimit="10"/>
<path d="M6.94922 76.3164C10.1551 76.3164 10.1551 78.9004 13.4126 78.9004C16.6702 78.9004 16.6185 76.3164 19.8761 76.3164C23.1336 76.3164 23.0819 78.9004 26.3395 78.9004" stroke="#0073FF" stroke-width="2" stroke-miterlimit="10"/>
<path d="M26.0667 76.3164C29.3371 76.3164 29.3371 78.9004 32.6076 78.9004C35.8781 78.9004 35.8652 76.3164 39.1357 76.3164C42.4061 76.3164 42.4062 78.9004 45.6766 78.9004" stroke="#0073FF" stroke-width="2" stroke-miterlimit="10"/>
<path d="M37.8701 85.8691C41.0889 85.8691 41.0889 88.4531 44.3335 88.4531C47.5782 88.4531 47.5523 85.8691 50.797 85.8691C54.0416 85.8691 54.0028 88.4531 57.2604 88.4531" stroke="#0073FF" stroke-width="2" stroke-miterlimit="10"/>
<path d="M57.1567 85.8691C60.3626 85.8691 60.3626 88.4531 63.6202 88.4531C66.8777 88.4531 66.826 85.8691 70.0836 85.8691C73.3411 85.8691 73.2894 88.4531 76.547 88.4531" stroke="#0073FF" stroke-width="2" stroke-miterlimit="10"/>
<path d="M76.4309 85.8691C79.6368 85.8691 79.6368 88.4531 82.8943 88.4531C86.1519 88.4531 86.1131 85.8691 89.3577 85.8691C92.6023 85.8691 92.5765 88.4531 95.8211 88.4531" stroke="#0073FF" stroke-width="2" stroke-miterlimit="10"/>
<path d="M13.1147 85.8691C16.3335 85.8691 16.3335 88.4531 19.5781 88.4531" stroke="#0073FF" stroke-width="2" stroke-miterlimit="10"/>
<path d="M19.3987 85.8691C22.6563 85.8691 22.6563 88.4531 25.9267 88.4531C29.1972 88.4531 29.1972 85.8691 32.4677 85.8691C35.7382 85.8691 35.7382 88.4531 39.0087 88.4531" stroke="#0073FF" stroke-width="2" stroke-miterlimit="10"/>
<path d="M25.1377 97.0371C28.3565 97.0371 28.3565 99.6225 31.6011 99.6225C34.8457 99.6225 34.8199 97.0371 38.0645 97.0371C41.3092 97.0371 41.2833 99.6225 44.5279 99.6225" stroke="#0073FF" stroke-width="2" stroke-miterlimit="10"/>
<path d="M44.4116 97.0371C47.6304 97.0371 47.6304 99.6225 50.875 99.6225C54.1197 99.6225 54.0938 97.0371 57.3384 97.0371C60.5831 97.0371 60.5443 99.6225 63.8019 99.6225" stroke="#0073FF" stroke-width="2" stroke-miterlimit="10"/>
<path d="M63.6985 97.0371C66.9043 97.0371 66.9043 99.6225 70.1619 99.6225C73.4195 99.6225 73.3678 97.0371 76.6253 97.0371C79.8829 97.0371 79.8441 99.6225 83.0887 99.6225" stroke="#0073FF" stroke-width="2" stroke-miterlimit="10"/>
<path d="M56.7554 53.707L58.759 58.8002" stroke="#0073FF" stroke-width="2" stroke-miterlimit="10"/>
<path d="M57.7373 65.793L59.741 70.8861" stroke="#0073FF" stroke-width="2" stroke-miterlimit="10"/>
<path d="M50.887 58.877L49.4133 64.2028" stroke="#0073FF" stroke-width="2" stroke-miterlimit="10"/>
</svg>

<svg width="109" height="109" fill="none" xmlns="http://www.w3.org/2000/svg"><path d="M54.997 69.09c15.157 0 27.444-12.287 27.444-27.443 0-15.157-12.287-27.444-27.444-27.444-15.156 0-27.443 12.287-27.443 27.444 0 15.157 12.287 27.443 27.443 27.443z" stroke="#0073FF" stroke-width="2" stroke-miterlimit="10"/><path d="M55 61.087c10.737 0 19.441-8.704 19.441-19.442 0-10.737-8.704-19.442-19.442-19.442-10.737 0-19.442 8.705-19.442 19.442 0 10.738 8.705 19.442 19.442 19.442z" stroke="#0073FF" stroke-width="2" stroke-miterlimit="10"/><path d="M74.388 76.716L62.38 50.72a7.834 7.834 0 00-11.272-3.339 7.86 7.86 0 00-2.895 3.222L35.608 77.607" fill="#fff"/><path d="M74.388 76.716L62.38 50.72a7.834 7.834 0 00-7.11-4.537v0a7.86 7.86 0 00-7.057 4.42L35.608 77.607" stroke="#0073FF" stroke-width="2" stroke-miterlimit="10"/><path d="M54.998 107.107c29.271 0 53-23.728 53-53 0-29.27-23.729-53-53-53s-53 23.73-53 53c0 29.272 23.729 53 53 53z" stroke="#0073FF" stroke-width="2" stroke-miterlimit="10"/><path d="M44.553 76.316c3.206 0 3.206 2.584 6.463 2.584 3.258 0 3.206-2.584 6.464-2.584 3.257 0 3.219 2.584 6.463 2.584m-.116-2.584c3.219 0 3.219 2.584 6.464 2.584 3.244 0 3.218-2.584 6.463-2.584s3.219 2.584 6.463 2.584m-.116-2.584c3.22 0 3.22 2.584 6.464 2.584s3.219-2.584 6.463-2.584c3.245 0 3.206 2.584 6.464 2.584M6.95 76.316c3.205 0 3.205 2.584 6.463 2.584 3.257 0 3.206-2.584 6.463-2.584 3.258 0 3.206 2.584 6.463 2.584m-.272-2.584c3.27 0 3.27 2.584 6.54 2.584 3.271 0 3.258-2.584 6.529-2.584 3.27 0 3.27 2.584 6.54 2.584m-7.806 6.97c3.219 0 3.219 2.583 6.464 2.583 3.244 0 3.218-2.584 6.463-2.584s3.206 2.584 6.463 2.584m-.103-2.583c3.206 0 3.206 2.583 6.463 2.583 3.258 0 3.206-2.584 6.464-2.584 3.257 0 3.205 2.584 6.463 2.584m-.117-2.583c3.207 0 3.207 2.583 6.464 2.583 3.258 0 3.22-2.584 6.464-2.584s3.218 2.584 6.463 2.584M13.115 85.87c3.219 0 3.219 2.583 6.463 2.583m-.179-2.583c3.257 0 3.257 2.583 6.528 2.583 3.27 0 3.27-2.584 6.54-2.584 3.271 0 3.271 2.584 6.542 2.584m-13.871 8.584c3.218 0 3.218 2.585 6.463 2.585s3.219-2.585 6.464-2.585c3.244 0 3.218 2.585 6.463 2.585m-.116-2.585c3.218 0 3.218 2.585 6.463 2.585s3.219-2.585 6.463-2.585c3.245 0 3.206 2.585 6.464 2.585m-.103-2.585c3.205 0 3.205 2.585 6.463 2.585 3.257 0 3.206-2.585 6.463-2.585 3.258 0 3.22 2.585 6.464 2.585M56.755 53.707L58.76 58.8m-1.023 6.993l2.004 5.093m-8.854-12.009l-1.474 5.326" stroke="#0073FF" stroke-width="2" stroke-miterlimit="10"/></svg>
